X: 20652
Q: "Plaintively and slow."
M: C
L: 1/8
K: Bb
(FD)(F>G) F3B | (FD)(B,D) F2(F>E) |\
(F<D)(F>G) F3B | (FD)(B,D) F2GA |\
(B>c)(d>e) f3g | (f<d)(c>B) f2(fe) |\
d2(g>a) g3a | (ba)(g^f) g3f |\
(gf)(ga) b3(a/g/) | (f<d)(c>B) c3B |\
(cd)(fg) f3g | (fd)(cB) {A}G3 |]


